Numix-Light-GalliumOS/24/status/yd-ind-idle.svg

<?xml version="1.0" encoding="UTF-8" standalone="no"?>
<!-- Created with Inkscape (http://www.inkscape.org/) -->

<svg
   xmlns:dc="http://purl.org/dc/elements/1.1/"
   xmlns:cc="http://creativecommons.org/ns#"
   xmlns:rdf="http://www.w3.org/1999/02/22-rdf-syntax-ns#"
   xmlns:svg="http://www.w3.org/2000/svg"
   xmlns="http://www.w3.org/2000/svg"
   xmlns:sodipodi="http://sodipodi.sourceforge.net/DTD/sodipodi-0.dtd"
   xmlns:inkscape="http://www.inkscape.org/namespaces/inkscape"
   id="svg2"
   version="1.1"
   inkscape:version="0.91 r"
   width="24"
   height="24"
   viewBox="0 0 24 24"
   sodipodi:docname="yd-ind-idle.svg">
  <metadata
     id="metadata8">
    <rdf:RDF>
      <cc:Work
         rdf:about="">
        <dc:format>image/svg+xml</dc:format>
        <dc:type
           rdf:resource="http://purl.org/dc/dcmitype/StillImage" />
        <dc:title />
      </cc:Work>
    </rdf:RDF>
  </metadata>
  <defs
     id="defs6" />
  <sodipodi:namedview
     pagecolor="#ffffff"
     bordercolor="#666666"
     borderopacity="1"
     objecttolerance="10"
     gridtolerance="10"
     guidetolerance="10"
     inkscape:pageopacity="0"
     inkscape:pageshadow="2"
     inkscape:window-width="1366"
     inkscape:window-height="747"
     id="namedview4"
     showgrid="true"
     showguides="false"
     inkscape:zoom="5.656854"
     inkscape:cx="-45.178814"
     inkscape:cy="13.346985"
     inkscape:window-x="0"
     inkscape:window-y="21"
     inkscape:window-maximized="1"
     inkscape:current-layer="svg2">
    <inkscape:grid
       type="xygrid"
       id="grid4142" />
  </sodipodi:namedview>
  <ellipse
     style="opacity:1;fill:#353535;fill-opacity:1;fill-rule:nonzero;stroke:none;stroke-width:1;stroke-linecap:square;stroke-linejoin:round;stroke-miterlimit:4;stroke-dasharray:none;stroke-dashoffset:0;stroke-opacity:1"
     id="path4138"
     cx="8.175375"
     cy="16.023502"
     rx="10.327949"
     ry="3.0550735"
     transform="matrix(0.96527118,-0.26124998,0.2564075,0.96656877,0,0)" />
  <path
     style="opacity:1;fill:#353535;fill-opacity:1;fill-rule:evenodd;stroke:none;stroke-width:1px;stroke-linecap:butt;stroke-linejoin:miter;stroke-opacity:1"
     d="M 10.230397,6.7477526 C 10.042584,6.7980748 9.7402226,6.9075115 9.5230222,7.0417915 9.0718321,7.3207315 8.5124424,7.8597015 8.3196547,8.0831026 8.0644725,8.378806 7.7995594,8.8395705 7.6012757,9.1740175 7.3586235,9.5833025 7.2499891,9.8219465 7.0490695,10.130468 6.8666344,10.410604 6.6722919,10.684333 6.4572532,10.940298 6.3502065,11.067717 6.207137,11.222956 6.0558081,11.382389 7.4814168,10.729524 9.1460917,10.130577 10.959684,9.6397295 12.798755,9.1419865 14.559906,8.8179527 16.134301,8.6660105 15.93389,8.6063549 15.743358,8.5463704 15.594007,8.4921116 15.279798,8.3779582 14.974926,8.2379938 14.676866,8.0866049 14.348606,7.9198771 14.135199,7.7675237 13.720417,7.5343982 13.381477,7.3439004 12.921668,7.0773237 12.552825,6.9488282 12.274168,6.8517504 11.520235,6.6646837 10.990023,6.6487104 c -0.255242,-0.00767 -0.605077,0.057633 -0.759626,0.099044 z"
     id="path4144"
     inkscape:connector-curvature="0"
     sodipodi:nodetypes="sssssscscssssss" />
</svg>

<svg xmlns="http://www.w3.org/2000/svg" viewBox="0 0 24 24">
 <ellipse cx="8.175" cy="16.02" rx="10.328" ry="3.055" transform="matrix(0.96527118,-0.26124998,0.2564075,0.96656877,0,0)" style="fill:#353535;opacity:1;fill-opacity:1;stroke:none;fill-rule:nonzero"/>
 <path d="m 10.23 6.748 c -0.188 0.05 -0.49 0.16 -0.707 0.294 -0.451 0.279 -1.01 0.818 -1.203 1.041 -0.255 0.296 -0.52 0.756 -0.718 1.091 -0.243 0.409 -0.351 0.648 -0.552 0.956 -0.182 0.28 -0.377 0.554 -0.592 0.81 -0.107 0.127 -0.25 0.283 -0.401 0.442 1.426 -0.653 3.09 -1.252 4.904 -1.743 1.839 -0.498 3.6 -0.822 5.175 -0.974 -0.2 -0.06 -0.391 -0.12 -0.54 -0.174 -0.314 -0.114 -0.619 -0.254 -0.917 -0.406 -0.328 -0.167 -0.542 -0.319 -0.956 -0.552 -0.339 -0.19 -0.799 -0.457 -1.168 -0.586 -0.279 -0.097 -1.033 -0.284 -1.563 -0.3 c -0.255 -0.008 -0.605 0.058 -0.76 0.099 z" style="fill:#353535;opacity:1;fill-opacity:1;stroke:none;fill-rule:evenodd"/>
</svg>
